X:1
T:Who’ll Be the Next?
T:Who’ll Be the Next?
T:Robert Lowry
T:Annie Sherwood Hawks, 1870
T:Public Domain Courtesy of the Cyber Hymnal™
C:Robert Lowry
Z:Public Domain
Z:Courtesy of the Cyber Hymnal™
%%score ( 1 2 ) ( 3 4 )
L:1/8
Q:1/4=100
M:4/4
K:Bb
V:1 treble 
V:2 treble 
V:3 bass 
V:4 bass 
V:1
 [DF]2 [DF]>[DF] [DF]2 [DF]2 | [DB]2 ([Fd][Ec]) [DB]2 [DF]2 | [EG]2 [EG]>[FA] [GB]2 ([FA][EG]) | %3
w: 1.~Who’ll be the next to|fol- low * Je- sus?|Who’ll be the next His *|
w: 2.~Who’ll be the next to|fol- low * Je- sus—|Fol- low His wea- ry, *|
w: 3.~Who’ll be the next to|fol- low * Je- sus?|Who’ll be the next to *|
w: 4.~Who’ll be the next to|fol- low * Je- sus|Down thro’ the Jor- dan’s *|
 [EG]2 [DF]2 [DF]4 | [CF]2 [CE]>[CE] [CE]2 [EG]2 | [EG]2 [DF]>[DF] [DF]2 [FB]2 | %6
w: cross to bear?|Some one is rea- dy,|some- one is wait- ing;|
w: bleed- ing feet?|Who’ll be the next to|lay ev- ery bur- den|
w: praise His name?|Who’ll swell the cho- rus|of free re- demp- tion,|
w: roll- ing tide?|Who’ll be the next to|join with the ran- somed,|
 [FA]2 [FA]>[GB] [Ac][GB][FA][=EG] | z6 x4 ||"^Refrain" [DB]2 [DF]>[DF] [DF]2 z2 | %9
w: Who’ll be the next a crown to||wear? * * *|
w: Down at the Fa- ther’s mer- cy||seat? Who’ll be the|
w: Sing, “Hal- le- lu- jah! praise the||Lamb”? * * *|
w: Sing- ing up- on the o- ther||side? * * *|
 [GB]2 [EG]>[EG] [EG]2 z2 | [CA]2 [CA]>[DB] [Ec]2 ([Fd][Ec]) | [DB]2 [DF]2 [B,D]2 [DF]2 | %12
w: |||
w: next? Who’ll be the|next? Who’ll be the next *|to fol- low Je-|
w: |||
w: |||
 [EG]2 [EG]>[EB] [Ec][EB][FA][EG] | [DF]2 [DB]2 [Fd]4 | [Ec]2 [Ec]2 [DB]2 [CA]2 | [DB]8 |] %16
w: ||||
w: sus? Who’ll be the next to fol-|low Je- sus|now? Fol- low Je-|sus|
w: ||||
w: ||||
V:2
 x8 | x8 | x8 | x8 | x8 | x8 | x8 | F8 E2 || x8 | x8 | x8 | x8 | x8 | x8 | x8 | x8 |] %16
V:3
 [B,,B,]2 [B,,B,]>[B,,B,] [B,,B,]2 [B,,B,]2 | [B,,F,]2 [B,,B,]2 [B,,B,]2 [B,,B,]2 | %2
 [E,B,]2 [E,B,]>[E,B,] [E,B,]2 [E,B,]2 | [B,,B,]2 [B,,B,]2 [B,,B,]4 | %4
 [F,A,]2 [F,A,]>[F,A,] [F,A,]2 [F,A,]2 | [B,,B,]2 [B,,B,]>[B,,B,] [B,,B,]2 [B,,D]2 | %6
 [C,C]2 [C,C]>[C,C] [C,C][C,C][C,C][C,B,] | [F,A,]8 x2 || [B,,B,]2 [B,,B,]>[B,,B,] [B,,B,]2 z2 | %9
 [E,B,]2 [E,B,]>[E,B,] [E,B,]2 z2 | F,2 F,>[F,B,] [F,A,]2 [F,A,]2 | %11
 [B,,B,]2 [B,,B,]2 [B,,F,]2 [B,,B,]2 | [E,B,]2 [E,B,]>[E,G,] [E,G,][E,G,][E,B,][E,B,] | %13
 [B,,B,]2 [B,,F,]2 [B,,B,]4 | [E,G,]2 [E,G,]2 F,2 F,2 | [B,,F,]8 |] %16
V:4
 x8 | x8 | x8 | x8 | x8 | x8 | x8 | x10 || x8 | x8 | F,2 F,3/2 x9/2 | x8 | x8 | x8 | x4 F,2 F,2 | %15
 x8 |] %16

